svgs/stn.svg

<svg xmlns="http://www.w3.org/2000/svg" viewBox="0 0 192 192"><path d="M27.31 128.112c-9.998-.844-9.75-.628-9.75-8.453v-7.094l3.961.669c6.649 1.122 21.446 1.813 24.658 1.152 3.925-.809 5.231-4.764 2.642-8.006-1.315-1.647-4.694-3.102-10.798-4.649C21.102 97.442 15.971 92.819 16 81.889c.022-8.526 3.113-13.068 11.084-16.288 4.962-2.005 7.468-2.298 19.117-2.234 7.374.04 14.986.401 16.917.801l3.511.728-.609 6.983c-.335 3.842-.862 7.192-1.171 7.446-.309.253-3.05-.235-6.092-1.085-3.479-.973-8.638-1.435-13.917-1.247-8.039.286-8.404.408-8.76 2.923-.519 3.674 2.235 5.502 11.814 7.843 9.169 2.24 15.122 5.157 18.764 9.191 3.128 3.465 4.183 14.761 1.893 20.245-3.873 9.271-17.62 12.91-41.241 10.917Zm53.993-2.092c-4.245-2.738-5.242-6.501-5.242-19.793V93.792h-3.047c-2.911 0-3.047-.267-3.047-6s.136-6 3.047-6c2.912 0 3.047-.267 3.047-6v-6h19.5v12h13.407v12H95.561v10.531c0 11.927.52 12.569 8.718 10.774l4.689-1.027v13.722l-12.493-.022c-9.961-.018-13.035-.373-15.172-1.75Zm32.54-30.186V63.792l9.445.008 9.446.008 2.559 3.742c1.408 2.058 6.618 9.512 11.578 16.564l9.019 12.822.334-16.572.335-16.572H176v64h-19.21l-9.121-12.75c-5.016-7.013-10.154-14.242-11.418-16.065l-2.299-3.315-.609 15.815-.609 15.815-9.446.292-9.445.292Z"/></svg>

<svg
    xmlns="http://www.w3.org/2000/svg"
    viewBox="0 0 192 192"
    id="vector">
    <g id="group">
        <path
            id="path"
            d="M 27.31 128.112 C 17.312 127.268 17.56 127.484 17.56 119.659 L 17.56 112.565 L 21.521 113.234 C 28.17 114.356 42.967 115.047 46.179 114.386 C 50.104 113.577 51.41 109.622 48.821 106.38 C 47.506 104.733 44.127 103.278 38.023 101.731 C 21.102 97.442 15.971 92.819 16 81.889 C 16.022 73.363 19.113 68.821 27.084 65.601 C 32.046 63.596 34.552 63.303 46.201 63.367 C 53.575 63.407 61.187 63.768 63.118 64.168 L 66.629 64.896 L 66.02 71.879 C 65.685 75.721 65.158 79.071 64.849 79.325 C 64.54 79.578 61.799 79.09 58.757 78.24 C 55.278 77.267 50.119 76.805 44.84 76.993 C 36.801 77.279 36.436 77.401 36.08 79.916 C 35.561 83.59 38.315 85.418 47.894 87.759 C 57.063 89.999 63.016 92.916 66.658 96.95 C 69.786 100.415 70.841 111.711 68.551 117.195 C 64.678 126.466 50.931 130.105 27.31 128.112 Z M 81.303 126.02 C 77.058 123.282 76.061 119.519 76.061 106.227 L 76.061 93.792 L 73.014 93.792 C 70.103 93.792 69.967 93.525 69.967 87.792 C 69.967 82.059 70.103 81.792 73.014 81.792 C 75.926 81.792 76.061 81.525 76.061 75.792 L 76.061 69.792 L 95.561 69.792 L 95.561 81.792 L 108.968 81.792 L 108.968 93.792 L 95.561 93.792 L 95.561 104.323 C 95.561 116.25 96.081 116.892 104.279 115.097 L 108.968 114.07 L 108.968 127.792 L 96.475 127.77 C 86.514 127.752 83.44 127.397 81.303 126.02 Z M 113.843 95.834 L 113.843 63.792 L 123.288 63.8 L 132.734 63.808 L 135.293 67.55 C 136.701 69.608 141.911 77.062 146.871 84.114 L 155.89 96.936 L 156.224 80.364 L 156.559 63.792 L 176 63.792 L 176 127.792 L 156.79 127.792 L 147.669 115.042 C 142.653 108.029 137.515 100.8 136.251 98.977 L 133.952 95.662 L 133.343 111.477 L 132.734 127.292 L 123.288 127.584 L 113.843 127.876 Z"
            fill="#000000"
            stroke-width="12"/>
    </g>
</svg>
